flaticon/game/arrow.svg

<svg xmlns="http://www.w3.org/2000/svg" width="32" height="32" viewBox="0 0 24 24">
    <path d="M 16.035156 20.8125 L 24 23.929688 L 20.882812 15.964844 L 17.382812 15.527344 L 9.246094 7.460938 L 9.246094 4.273438 C 9.246094 4.042969 9.058594 3.855469 8.824219 3.855469 L 8.40625 3.855469 L 8.40625 3.433594 C 8.40625 3.203125 8.21875 3.011719 7.984375 3.011719 L 7.566406 3.011719 L 7.566406 2.171875 C 7.566406 1.941406 7.378906 1.753906 7.144531 1.753906 L 6.722656 1.753906 L 6.722656 1.332031 C 6.722656 1.101562 6.535156 0.910156 6.304688 0.910156 L 5.882812 0.910156 L 5.882812 0.492188 C 5.882812 0.257812 5.695312 0.0703125 5.464844 0.0703125 L 3.78125 0.0703125 C 3.550781 0.0703125 3.363281 0.257812 3.363281 0.492188 L 3.363281 3.433594 L 0.421875 3.433594 C 0.1875 3.433594 0 3.621094 0 3.855469 L 0 5.535156 C 0 5.765625 0.1875 5.957031 0.421875 5.957031 L 0.839844 5.957031 L 0.839844 6.375 C 0.839844 6.609375 1.027344 6.796875 1.261719 6.796875 L 1.679688 6.796875 L 1.679688 7.214844 C 1.679688 7.449219 1.867188 7.636719 2.101562 7.636719 L 2.523438 7.636719 L 2.523438 8.058594 C 2.523438 8.289062 2.710938 8.476562 2.941406 8.476562 L 3.363281 8.476562 L 3.363281 8.914062 C 3.363281 9.023438 3.40625 9.132812 3.484375 9.210938 C 3.5625 9.289062 3.671875 9.332031 3.78125 9.332031 C 3.78125 9.332031 3.785156 9.332031 3.785156 9.332031 L 7.609375 9.320312 L 15.601562 17.3125 Z M 22.226562 21.703125 L 20.050781 19.527344 C 19.886719 19.363281 19.621094 19.363281 19.457031 19.527344 C 19.292969 19.691406 19.292969 19.957031 19.457031 20.121094 L 21.304688 21.972656 L 16.808594 20.210938 L 16.402344 16.964844 L 16.71875 16.648438 L 17.039062 16.332031 L 20.285156 16.738281 Z M 16.125 16.054688 L 15.828125 16.351562 L 8.402344 8.921875 C 8.402344 8.914062 8.40625 8.90625 8.40625 8.898438 L 8.40625 8.449219 L 8.449219 8.320312 L 8.753906 8.15625 L 16.421875 15.757812 Z M 5.042969 0.914062 L 5.042969 1.332031 C 5.042969 1.566406 5.230469 1.753906 5.464844 1.753906 L 5.882812 1.753906 L 5.882812 2.171875 C 5.882812 2.40625 6.070312 2.59375 6.304688 2.59375 L 6.722656 2.59375 L 6.722656 3.433594 C 6.722656 3.667969 6.914062 3.855469 7.144531 3.855469 L 7.566406 3.855469 L 7.566406 4.273438 C 7.566406 4.507812 7.753906 4.695312 7.984375 4.695312 L 8.40625 4.695312 L 8.40625 7.378906 L 8.160156 7.5 L 4.203125 3.675781 L 4.203125 0.914062 Z M 3.78125 7.636719 L 3.363281 7.636719 L 3.363281 7.214844 C 3.363281 6.984375 3.175781 6.796875 2.941406 6.796875 L 2.523438 6.796875 L 2.523438 6.375 C 2.523438 6.144531 2.332031 5.957031 2.101562 5.957031 L 1.679688 5.957031 L 1.679688 5.535156 C 1.679688 5.304688 1.492188 5.113281 1.261719 5.113281 L 0.839844 5.113281 L 0.839844 4.273438 L 3.613281 4.273438 L 7.566406 8.089844 L 7.566406 8.3125 L 7.511719 8.480469 L 4.203125 8.492188 L 4.203125 8.058594 C 4.203125 7.824219 4.015625 7.636719 3.78125 7.636719 Z M 3.78125 7.636719"/>
</svg>

<svg xmlns="http://www.w3.org/2000/svg" width="32" height="32" viewBox="0 0 24 24">
    <path d="M16.035 20.813L24 23.93l-3.117-7.965-3.5-.438-8.137-8.066V4.273a.42.42 0 0 0-.422-.418h-.418v-.421a.423.423 0 0 0-.422-.422h-.418v-.84a.42.42 0 0 0-.421-.418h-.422v-.422A.422.422 0 0 0 6.305.91h-.422V.492A.42.42 0 0 0 5.465.07H3.78a.42.42 0 0 0-.418.422v2.942H.422A.42.42 0 0 0 0 3.855v1.68c0 .23.188.422.422.422H.84v.418a.42.42 0 0 0 .422.422h.418v.418a.42.42 0 0 0 .422.422h.421v.422c0 .23.188.418.418.418h.422v.437c0 .11.043.219.121.297a.423.423 0 0 0 .297.121h.004L7.61 9.32l7.993 7.992zm6.192.89l-2.176-2.176a.42.42 0 1 0-.594.594l1.848 1.852-4.496-1.762-.407-3.246.317-.317.32-.316 3.246.406zm-6.102-5.648l-.297.297-7.426-7.43c0-.008.004-.016.004-.024V8.45l.043-.129.305-.164 7.668 7.602zM5.043.915v.417a.42.42 0 0 0 .422.422h.418v.418a.42.42 0 0 0 .422.422h.418v.84c0 .234.191.421.422.421h.421v.418a.42.42 0 0 0 .418.422h.422V7.38L8.16 7.5 4.203 3.676V.914zM3.781 7.636h-.418v-.422a.42.42 0 0 0-.422-.418h-.418v-.422a.422.422 0 0 0-.421-.418H1.68v-.422a.422.422 0 0 0-.418-.422H.84v-.84h2.773L7.566 8.09v.223l-.054.167-3.309.012V8.06a.42.42 0 0 0-.422-.422zm0 0"/>
</svg>
